rospo-icon-theme-classic-common/22x22/places/folder-cyan-locked.svg

<svg height="22" width="22" xmlns="http://www.w3.org/2000/svg"><rect height="12" opacity=".2" rx="1" width="20" x="1" y="8.5"/><path d="m1 16c0 .554.446 1 1 1h18c .554 0 1-.446 1-1v-11c0-.554-.446-1-1-1h-10v-1c0-.554-.446-1-1-1h-7c-.554 0-1 .446-1 1" fill="#0096aa"/><rect height="12" opacity=".2" rx="1" width="20" x="1" y="7.5"/><rect fill="#e4e4e4" height="8" rx="1" width="16" x="3" y="6"/><rect fill="#00bcd4" height="12" rx="1" width="20" x="1" y="8"/><path d="m2 2c-.554 0-1 .446-1 1v .5c0-.554.446-1 1-1h7c .554 0 1 .446 1 1v-.5c0-.554-.446-1-1-1zm8 2v .5h10c .554 0 1 .446 1 1v-.5c0-.554-.446-1-1-1z" fill="#fff" opacity=".1"/><path d="m11 10c-1.108 0-2 .91-2 2.031v.969h-.5c-.277 0-.5.223-.5.5v3c0 .277.223.5.5.5h5c .277 0 .5-.223.5-.5v-3c0-.277-.223-.5-.5-.5h-.5v-.969c0-1.12-.892-2.031-2-2.031zm0 1c .554 0 1 .445 1 1v1h-2v-1c0-.555.446-1 1-1z" fill="#00424a"/></svg>

<svg xmlns="http://www.w3.org/2000/svg" width="22" height="22" version="1">
 <rect style="opacity:0.2" width="20" height="12" x="1" y="8.5" rx="1" ry="1"/>
 <path style="fill:#0096aa" d="M 1,16 C 1,16.554 1.446,17 2,17 H 20 C 20.554,17 21,16.554 21,16 V 5 C 21,4.446 20.554,4 20,4 H 10 V 3 C 10,2.446 9.554,2 9,2 H 2 C 1.446,2 1,2.446 1,3"/>
 <rect style="opacity:0.2" width="20" height="12" x="1" y="7.5" rx="1" ry="1"/>
 <rect style="fill:#dcdcdc" width="16" height="8" x="3" y="6" rx="1" ry="1"/>
 <rect style="fill:#00bcd4" width="20" height="12" x="1" y="8" rx="1" ry="1"/>
 <path style="opacity:0.1;fill:#ffffff" d="M 2,2 C 1.446,2 1,2.446 1,3 V 3.5 C 1,2.946 1.446,2.5 2,2.5 H 9 C 9.554,2.5 10,2.946 10,3.5 V 3 C 10,2.446 9.554,2 9,2 Z M 10,4 V 4.5 H 20 C 20.554,4.5 21,4.946 21,5.5 V 5 C 21,4.446 20.554,4 20,4 Z"/>
 <path style="fill:#00424A" d="M 11,10 C 9.892,10 9,10.91 9,12.031 V 13 H 8.5 C 8.223,13 8,13.223 8,13.5 V 16.5 C 8,16.777 8.223,17 8.5,17 H 13.5 C 13.777,17 14,16.777 14,16.5 V 13.5 C 14,13.223 13.777,13 13.5,13 H 13 V 12.031 C 13,10.911 12.108,10 11,10 Z M 11,11 C 11.554,11 12,11.445 12,12 V 13 H 10 V 12 C 10,11.445 10.446,11 11,11 Z"/>
</svg>
